X:390
T:Benderloch Bay 
C:Joe Buchanan's Scottish Tome - Page 345.0
I:345 0
C:Donald MacLean
R:March
Z:Carl Allison
L:1/16
M:2/4
K:A
e>c | "A" A2A>B c2B>A | "A" c<aa>e "D" f2e>f | "A" a2e>f "E+" c2A>c | "B7" e>Af>c "E7" B2e>c |
"A" A2A>G c2B>A | "A" c<aa>e "D" f2e>f | "F#m" e<aa>f "E7" e>Af>e | "A" c2A2 A2 :|
c>d | "A" e2f>e c2A>c | "A" A<ca>e "E+" f2e>f | "A" A2 "F#m" c2A>c | "B7" e>Af>c "E7" B2c>d |
"A" e2f>e c2A>c | "A" Acae "E+" f2e>f | "F#m" e<aa>f "E7" e2f>e | "A" c2A2 "A" A2 :|
a2 | "A" A2A>B c<eA>e | "A" c2A>c "E+" e2A>e | "D" f<aa>f "A" e2A>c | "B7" f>ec>A "E7" B2a2 |
"A" A2A>B c<eA>e | "A" c2A>c "E+" e2A>e | "D" f<aa>f "A" e>Af>e | "A" c2A2 "A" A2 :|
fg | "A" a2A>c e2A>c | "A" A>ca>e "E+" f2e>f | "A" a2e>f "E+" c2A>c | "B7" e>Af>c "E7" B2f>g |
"A" a2A>c e2A>c | "A" A>ca>e "E+" f2e>f | "F#m" e<aa>f "E7" e>Af>e | "A" c2A2 "A" A2 :|

